X:157
T:Road to Brighton (r)
B:NFID.240a
157road_b
S:JL
L:1/8
M:C
R:reel
Q:360
K:G
dc|BGGG GG (3GGG|DGGG Bcd2|ABAA F2AF|DAFA DAFA|
BGGG G2 (3GGG|DGGG Bcd2|B^cdf efec|d=cAF G2:|
GA|Bd (3ddd d2d2|fd (3ddd ad (3ddd|BddB ABAf|gfe^c dcBB|
Ad (3ddd d2d2|fd (3ddd ad (3ddd|Bddf efe^c|d=cAF G2:|

%%%

